images/svg/icons/skills/markdown/bibtex-icon.svg

<?xml version="1.0" encoding="UTF-8" standalone="no"?>
<svg
   width="500cm"
   height="500cm"
   version="1.0"
   id="svg1"
   sodipodi:docname="bibtex-icon.svg"
   inkscape:version="1.3 (0e150ed6c4, 2023-07-21)"
   xmlns:inkscape="http://www.inkscape.org/namespaces/inkscape"
   xmlns:sodipodi="http://sodipodi.sourceforge.net/DTD/sodipodi-0.dtd"
   xmlns="http://www.w3.org/2000/svg"
   xmlns:svg="http://www.w3.org/2000/svg">
  <defs
     id="defs1" />
  <sodipodi:namedview
     id="namedview1"
     pagecolor="#ffffff"
     bordercolor="#000000"
     borderopacity="0.25"
     inkscape:showpageshadow="2"
     inkscape:pageopacity="0.0"
     inkscape:pagecheckerboard="0"
     inkscape:deskcolor="#d1d1d1"
     inkscape:document-units="cm"
     inkscape:zoom="0.046226496"
     inkscape:cx="8004.0676"
     inkscape:cy="9810.391"
     inkscape:window-width="1920"
     inkscape:window-height="991"
     inkscape:window-x="2391"
     inkscape:window-y="-9"
     inkscape:window-maximized="1"
     inkscape:current-layer="g12" />
  <g
     id="g12"
     transform="matrix(250.28989,0,0,250.28989,1.153028e-4,6396.4085)"
     style="stroke-width:0.0561064">
    <path
       id="path14"
       style="fill:#000014;stroke:#000014;stroke-width:0.377515;stroke-dasharray:none;stroke-opacity:1;fill-opacity:1"
       d="M 7.8509974 -1.1861246e-06 L -4.6067702e-07 0.0039707707 L -4.6067702e-07 0.60198827 C 1.7299978 0.60198827 2.0070004 0.60199103 2.0070004 1.7189899 L 2.0070004 15.176003 C 2.0070004 16.293002 1.7339878 16.292997 -4.6067702e-07 16.292997 L -4.6067702e-07 16.890999 L 8.4959995 16.890999 C 11.655996 16.890999 13.707004 14.640996 13.707004 12.390998 C 13.707004 10.164 11.679 8.2619574 9.0390026 8.0859976 C 11.406 7.6179781 13.062002 6.0360113 13.062002 4.1569832 C 13.062002 2.1060253 11.038994 -1.1861246e-06 7.8509974 -1.1861246e-06 z M 59.343 0.011961505 L 59.343 0.60998681 C 60.702999 0.60998681 61.148 0.66101086 61.695 1.4299891 L 66.471999 8.4459786 L 62.164003 14.739002 C 61.101004 16.278 59.492 16.304998 59.019001 16.304998 L 59.019001 16.903 C 59.585 16.856 60.527002 16.856 61.121001 16.856 C 61.789 16.856 62.952998 16.856 63.569997 16.903 L 63.569997 16.304998 C 62.803998 16.230999 62.582002 15.734997 62.582002 15.335997 C 62.582002 15.015997 62.702998 14.840003 62.827998 14.664003 L 66.788999 8.8830031 L 71.097004 15.214997 C 71.292003 15.488996 71.291996 15.563 71.291996 15.637 C 71.291996 15.831999 71.07 16.258002 70.203001 16.309002 L 70.203001 16.907004 C 70.996 16.860004 72.206998 16.860003 73.022997 16.860003 C 73.663996 16.860003 74.901997 16.860004 75.502996 16.907004 L 75.502996 16.309002 C 73.916998 16.309002 73.667 16.187999 73.175 15.488999 L 67.730002 7.523993 L 71.394003 2.2269868 C 71.761003 1.7069673 72.506999 0.63696478 74.538997 0.60998681 L 74.538997 0.011961505 C 73.971997 0.058958558 73.030996 0.058961693 72.436997 0.058961693 C 71.620997 0.058961693 70.605 0.058958558 69.988001 0.011961505 L 69.988001 0.60998681 C 70.781 0.68396173 70.976003 1.1799908 70.976003 1.5789804 C 70.976003 1.8750001 70.854996 2.0750096 70.678996 2.3209794 L 67.409998 7.0629885 L 63.745996 1.7000119 C 63.573996 1.4299922 63.549997 1.3519868 63.549997 1.2780169 C 63.549997 1.0549871 63.82 0.63299779 64.639999 0.60998681 L 64.639999 0.011961505 C 63.846999 0.058958558 62.636002 0.058961693 61.820003 0.058961693 C 61.179004 0.058961693 59.941 0.058958558 59.343 0.011961505 z M 34.327999 0.046999002 L 33.909999 5.5239919 L 34.354999 5.5239919 C 34.674998 1.422006 35.027005 0.70397938 38.867001 0.70397938 L 40.234002 0.70397938 C 40.707002 0.77801531 40.707 1.0789835 40.707 1.648993 L 40.707 15.129003 C 40.707 16.024002 40.631996 16.297 38.545998 16.297 L 37.843001 16.297 L 37.843001 16.895002 C 39.031 16.872002 40.268999 16.848002 41.483998 16.848002 C 42.694997 16.848002 43.937005 16.872002 45.124004 16.895002 L 45.124004 16.297 L 44.433 16.297 C 42.378002 16.297 42.304 16.024002 42.304 15.129003 L 42.304 1.648993 C 42.304 1.1019935 42.303999 0.80499328 42.749999 0.70397938 L 44.109001 0.70397938 C 47.897997 0.70397938 48.269002 1.417976 48.589001 5.5239919 L 49.035 5.5239919 L 48.628003 0.046999002 L 34.327999 0.046999002 z M 4.640002 0.60998681 L 7.7850036 0.60998681 C 10.214001 0.60998681 11.296003 2.5939948 11.296003 4.1330032 C 11.296003 6.0200213 9.7959842 7.9069786 7.1439969 7.9069786 L 3.6089866 7.9069786 L 3.6089866 1.5789804 C 3.6089866 0.73498623 3.656003 0.60998681 4.640002 0.60998681 z M 21.749998 4.2039834 L 21.749998 4.8009631 C 23.385996 4.8009631 23.507 4.9500137 23.507 5.9649727 L 23.507 15.132998 C 23.507 16.148997 23.385996 16.297 21.749998 16.297 L 21.749998 16.895002 L 29.226001 16.895002 C 31.971998 16.895002 33.707 15.214996 33.707 13.488998 C 33.707 11.883 32.120998 10.523999 29.968 10.253999 C 31.725998 9.8869597 33.135998 8.7739906 33.135998 7.339972 C 33.135998 5.7860136 31.405998 4.2039834 28.707001 4.2039834 L 21.749998 4.2039834 z M 14.781001 4.2109987 L 14.781001 4.8089616 C 16.491999 4.8089616 16.613001 4.9339647 16.613001 5.9970137 L 16.613001 15.113997 C 16.613001 16.175996 16.495999 16.301003 14.781001 16.301003 L 14.781001 16.898997 C 15.621 16.874997 16.909997 16.829 17.553996 16.829 C 18.198996 16.829 19.483999 16.874997 20.327998 16.898997 L 20.327998 16.301003 C 18.535 16.301003 18.410004 16.179996 18.410004 15.113997 L 18.410004 5.9970137 C 18.410004 4.9339647 18.535 4.8089616 20.327998 4.8089616 L 20.327998 4.2109987 C 19.487999 4.2349887 18.198996 4.2860133 17.553996 4.2860133 C 16.909997 4.2860133 15.621 4.2390087 14.781001 4.2109987 z M 26.108998 4.8089616 L 28.511002 4.8089616 C 30.789 4.8089616 31.164004 6.731019 31.164004 7.3209784 C 31.164004 8.2069676 30.515001 10.004 27.910003 10.004 L 25.109001 10.004 L 25.109001 5.8679836 C 25.109001 4.8830046 25.233999 4.8089616 26.108998 4.8089616 z M 3.6129976 8.3089578 L 8.1559875 8.3089578 C 10.682995 8.3089578 11.913997 10.575003 11.913997 12.395001 C 11.913997 14.210999 10.514995 16.304998 7.8389879 16.304998 L 4.640002 16.304998 C 3.660003 16.304998 3.6129976 16.179996 3.6129976 15.335997 L 3.6129976 8.3089578 z M 25.109001 10.503998 L 28.828001 10.503998 C 30.932999 10.503998 31.605 12.411004 31.605 13.465003 C 31.605 14.594001 30.789 16.301003 28.531002 16.301003 L 26.100999 16.301003 C 25.234 16.301003 25.112997 16.227002 25.112997 15.223003 L 25.109001 10.503998 z "
       inkscape:label="offBlack0" />
    <path
       style="fill:#00ff00;stroke:#00ff00;stroke-width:0.377515;stroke-dasharray:none;stroke-opacity:1;fill-opacity:1"
       d="m 60.957,18.133 h -0.446 c -0.543,3.672 -0.863,5.668 -5.219,5.668 h -3.437 c -0.988,0 -1.035,-0.125 -1.035,-0.976 v -6.922 h 2.336 c 2.336,0 2.558,0.855 2.558,2.945 h 0.399 v -6.441 h -0.399 c 0,2.054 -0.222,2.894 -2.558,2.894 H 50.82 V 9.164 c 0,-0.83502 0.047,-0.96002 1.035,-0.96002 h 3.387 c 3.832,0 4.277,1.52301 4.625,4.79602 h 0.445 L 59.718,7.52399 H 47.179 v 0.67999 c 1.754,0 2.035,0 2.035,1.11304 V 22.68 c 0,1.113 -0.277,1.113 -2.035,1.113 v 0.598 h 12.887"
       id="path22"
       inkscape:label="color0" />
  </g>
</svg>

<?xml version="1.0" encoding="UTF-8" standalone="no"?>
<svg
   width="500cm"
   height="500cm"
   version="1.0"
   id="svg1"
   sodipodi:docname="bibtex-icon.svg"
   inkscape:version="1.3 (0e150ed6c4, 2023-07-21)"
   xmlns:inkscape="http://www.inkscape.org/namespaces/inkscape"
   xmlns:sodipodi="http://sodipodi.sourceforge.net/DTD/sodipodi-0.dtd"
   xmlns="http://www.w3.org/2000/svg"
   xmlns:svg="http://www.w3.org/2000/svg">
  <defs
     id="defs1" />
  <sodipodi:namedview
     id="namedview1"
     pagecolor="#ffffff"
     bordercolor="#000000"
     borderopacity="0.25"
     inkscape:showpageshadow="2"
     inkscape:pageopacity="0.0"
     inkscape:pagecheckerboard="0"
     inkscape:deskcolor="#d1d1d1"
     inkscape:document-units="cm"
     inkscape:zoom="0.046226496"
     inkscape:cx="8004.0676"
     inkscape:cy="9810.391"
     inkscape:window-width="1920"
     inkscape:window-height="991"
     inkscape:window-x="-9"
     inkscape:window-y="-9"
     inkscape:window-maximized="1"
     inkscape:current-layer="g12" />
  <g
     id="g12"
     transform="matrix(250.28989,0,0,250.28989,1.153028e-4,6396.4085)"
     style="stroke-width:0.0561064">
    <path
       style="fill:#000014;stroke:#000014;stroke-width:0.377515;stroke-dasharray:none;stroke-opacity:1;fill-opacity:1"
       d="M 0,0.00396729 V 0.60199 c 1.73,0 2.007,0 2.007,1.117 V 15.176 c 0,1.117 -0.27301,1.117 -2.007,1.117 v 0.598 h 8.496 c 3.16,0 5.211,-2.25 5.211,-4.5 0,-2.227 -2.028,-4.12904 -4.668,-4.305 C 11.406,7.61798 13.062,6.03601 13.062,4.15698 13.062,2.10602 11.039,0 7.851,0 Z M 3.60899,7.90698 v -6.328 C 3.60899,0.734985 3.656,0.609985 4.64,0.609985 h 3.145 c 2.429,0 3.511,1.984005 3.511,3.523015 0,1.88702 -1.50001,3.77398 -4.152,3.77398 z M 4.64,16.305 c -0.98,0 -1.027,-0.125 -1.027,-0.969 V 8.30896 h 4.54299 c 2.52701,0 3.75801,2.26604 3.75801,4.08604 0,1.816 -1.399,3.91 -4.07501,3.91"
       id="path14" />
    <path
       style="fill:#000014;stroke:#000014;stroke-width:0.377515;stroke-dasharray:none;stroke-opacity:1;fill-opacity:1"
       d="m 18.41,5.99701 c 0,-1.06305 0.125,-1.18805 1.918,-1.18805 V 4.211 c -0.84,0.02399 -2.129,0.07501 -2.774,0.07501 -0.644,0 -1.933,-0.047 -2.773,-0.07501 v 0.59796 c 1.711,0 1.832,0.125 1.832,1.18805 V 15.114 c 0,1.062 -0.117,1.187 -1.832,1.187 v 0.598 c 0.84,-0.024 2.129,-0.07 2.773,-0.07 0.645,0 1.93,0.046 2.774,0.07 v -0.598 c -1.793,0 -1.918,-0.121 -1.918,-1.187"
       id="path16" />
    <path
       style="fill:#000014;stroke:#000014;stroke-width:0.377515;stroke-dasharray:none;stroke-opacity:1;fill-opacity:1"
       d="m 21.75,4.20398 v 0.59698 c 1.636,0 1.757,0.14905 1.757,1.16401 V 15.133 c 0,1.016 -0.121,1.164 -1.757,1.164 v 0.598 h 7.476 c 2.746,0 4.481,-1.68 4.481,-3.406 0,-1.606 -1.586,-2.965 -3.739,-3.235 1.758,-0.36704 3.168,-1.48001 3.168,-2.91403 0,-1.55396 -1.73,-3.13599 -4.429,-3.13599 z M 25.109,10.004 V 5.86798 c 0,-0.98498 0.125,-1.05902 1,-1.05902 h 2.402 c 2.278,0 2.653,1.92206 2.653,2.51202 0,0.88599 -0.649,2.68302 -3.254,2.68302 z m 0,0.5 h 3.719 c 2.105,0 2.777,1.907 2.777,2.961 0,1.129 -0.816,2.836 -3.074,2.836 h -2.43 c -0.867,0 -0.988,-0.074 -0.988,-1.078"
       id="path18" />
    <path
       style="fill:#000014;stroke:#000014;stroke-width:0.377515;stroke-opacity:1;stroke-dasharray:none;fill-opacity:1"
       d="m 48.628,0.0469971 h -14.3 L 33.91,5.52399 h 0.445 c 0.32,-4.10199 0.672,-4.820011 4.512,-4.820011 0.445,0 1.168,0 1.367,0 0.473,0.074036 0.473,0.375001 0.473,0.945011 V 15.129 c 0,0.895 -0.075,1.168 -2.161,1.168 h -0.703 v 0.598 c 1.188,-0.023 2.426,-0.047 3.641,-0.047 1.211,0 2.453,0.024 3.64,0.047 v -0.598 h -0.691 c -2.055,0 -2.129,-0.273 -2.129,-1.168 V 1.64899 c 0,-0.547 0,-0.843997 0.446,-0.945011 0.195,0 0.914,0 1.359,0 3.789,0 4.16,0.713991 4.48,4.820011 h 0.446"
       id="path20" />
    <path
       style="fill:#00ff00;stroke:#00ff00;stroke-width:0.377515;stroke-dasharray:none;stroke-opacity:1;fill-opacity:1"
       d="m 60.957,18.133 h -0.446 c -0.543,3.672 -0.863,5.668 -5.219,5.668 h -3.437 c -0.988,0 -1.035,-0.125 -1.035,-0.976 v -6.922 h 2.336 c 2.336,0 2.558,0.855 2.558,2.945 h 0.399 v -6.441 h -0.399 c 0,2.054 -0.222,2.894 -2.558,2.894 H 50.82 V 9.164 c 0,-0.83502 0.047,-0.96002 1.035,-0.96002 h 3.387 c 3.832,0 4.277,1.52301 4.625,4.79602 h 0.445 L 59.718,7.52399 H 47.179 v 0.67999 c 1.754,0 2.035,0 2.035,1.11304 V 22.68 c 0,1.113 -0.277,1.113 -2.035,1.113 v 0.598 h 12.887"
       id="path22" />
    <path
       style="fill:#000014;stroke:#000014;stroke-width:0.377515;stroke-dasharray:none;stroke-opacity:1;fill-opacity:1"
       d="m 67.73,7.52399 3.664,-5.297 C 71.761,1.70697 72.507,0.636963 74.539,0.609985 V 0.0119629 C 73.972,0.05896 73.031,0.05896 72.437,0.05896 c -0.816,0 -1.832,0 -2.449,-0.0469971 V 0.609985 c 0.793,0.073975 0.988,0.570005 0.988,0.968995 0,0.29602 -0.121,0.49603 -0.297,0.742 L 67.41,7.06299 63.746,1.70001 C 63.574,1.42999 63.55,1.35199 63.55,1.27802 c 0,-0.22303 0.27,-0.645024 1.09,-0.668035 V 0.0119629 C 63.847,0.05896 62.636,0.05896 61.82,0.05896 c -0.641,0 -1.879,0 -2.477,-0.0469971 V 0.609985 c 1.36,0 1.805,0.051026 2.352,0.820005 l 4.777,7.01599 -4.308,6.29302 c -1.063,1.539 -2.672,1.566 -3.145,1.566 v 0.598 c 0.566,-0.047 1.508,-0.047 2.102,-0.047 0.668,0 1.832,0 2.449,0.047 v -0.598 c -0.766,-0.074 -0.988,-0.57 -0.988,-0.969 0,-0.32 0.121,-0.496 0.246,-0.672 l 3.961,-5.781 4.308,6.332 c 0.195,0.274 0.195,0.348 0.195,0.422 0,0.195 -0.222,0.621 -1.089,0.672 v 0.598 c 0.793,-0.047 2.004,-0.047 2.82,-0.047 0.641,0 1.879,0 2.48,0.047 v -0.598 c -1.586,0 -1.836,-0.121 -2.328,-0.82"
       id="path24" />
  </g>
</svg>
